X: 11
T: Din Tarrant's Polka
D:Julia and Billy Clifford, "Ceol as Sliabh Luachra"
S:Stevens Family <tomstev@IX.NETCOM.COM>
R:polka
M:2/4
L:1/8
K:D
|  f>a ge | f>a ge | fd ed | e/f/e/d/ Bd |
|  f>a ge | f/e/f/a/ ge | fd e/f/e/c/ |1 df de :|2  df dB |
|: A>F AB | Af af | ed ef/e/ | dA B/c/d/B/ |
|  A>F AB | Af af | ed ef | df d2 :|
%%sep 1 1 500
